X:1
T:Arcadelt, 76.76 D
T:Arcadelt, 76.76 D
T:Jacques Arcadelt (ca. 1507-1568)
T:Public Domain Courtesy of the Cyber Hymnal™
C:Jacques Arcadelt (ca. 1507-1568)
Z:Public Domain
Z:Courtesy of the Cyber Hymnal™
%%score ( 1 2 ) ( 3 4 )
L:1/8
Q:1/4=110
M:none
K:F
V:1 treble 
V:2 treble 
V:3 bass 
V:4 bass 
V:1
 [FA]2 | [EG]2 [CA]2 [DF]2 [EG]2 | [FA]4 [FA]2 [Fc]2 | [Fc]2 [Fc]2 [FB]2 [FA]2 | [EG]6 [FA]2 | %5
 [EG]2 [CA]2 [DF]2 [EG]2 | [FA]4 [EG]2 [FA]2 | (BA) (GF) [EG]2 [EG]2 | [CF]6 F2 | %9
 [Fc]2 [Fc]2 [Fd]2 [Ae]2 | [Af]4 [Ae]2 [Ec]2 | [Ec]2 [Gd]2 [Ge]2 [Gd]2 x | [Ec]6 [FA]2 | %13
 [EG]2 [CA]2 [DF]2 [EG]2 | [FA]4 [EG]2 [FA]2 | (BA) (GF) [EG]2 [EG]2 | [CF]6 |] %17
V:2
 x2 | x8 | x8 | x8 | x8 | x8 | x8 | F2 D2 x4 | x6 F2 | x8 | x8 | x9 | x8 | x8 | x8 | F2 D2 x4 | %16
 x6 |] %17
V:3
 [F,C]2 | [C,C]2 [F,A,]2 [D,A,]2 [C,C]2 | [F,C]4 [F,C]2 [F,A,]2 | [F,A,]2 [F,A,]2 [B,,D]2 [F,C]2 | %4
 [C,C]6 [F,C]2 | [C,C]2 [F,A,]2 [D,A,]2 [C,C]2 | [F,C]4 [C,C]2 [F,C]2 | %7
 [B,,D]2 [D,A,]2 [C,C]2 [C,C]2 | [F,A,]6 [F,A,]2 | [F,A,]2 [F,A,]2 [D,A,]2 [A,,^C]2 | %10
 [D,D]4 [A,C]2 [A,C]2 | [G,C]2 [G,=B,]2 C3 z B, | [C,C]6 [F,C]2 | [C,C]2 [F,A,]2 [D,A,]2 [C,C]2 | %14
 [F,C]4 [C,C]2 [F,C]2 | [B,,D]2 [D,A,]2 [C,C]2 [C,C]2 | [F,A,]6 |] %17
V:4
 x2 | x8 | x8 | x8 | x8 | x8 | x8 | x8 | x8 | x8 | x8 | x4 C,2 G,2 x | x8 | x8 | x8 | x8 | x6 |] %17

